X:102 
T:Lamp in the Window* (reel), The 
C:source: Grier MS
F:file ID: cre.4/102lamp
B:CRE4.198: gan ainm
Q:180
L:1/8
M:4/4
R:reel
K:D
K:G % source key F
d2 Bc dgfe|fgab afeg|d2 Bc dgfg|a2fa ag g2:|
d^cdB GABG|ABcd eE ~E2|d^cdB GA ~B2|ceaf ag g2:|

%%%

